X:1084
T:Joannie Nettle
T:Jennie Nettle
T:Johnnie Nittle
R:reel
O:Shetland
Z:id:hn-reel-1084
M:C|
L:1/8
K:Ador
cABG A2a2 | efge d2BG | cABG A2a2 | gefd eAAB :|
|: cded ceA2 | BcdB GBdB | cded cdef | gefd eAAB :|

